X:335
T:House of Cluny, The
R:Strathspey
C:William Marshall
B:The Athole Collection
M:C
L:1/8
K:F
C|F<F A>F A<c F2|E<G G<c G<c E>C|F<F A>F A>c~f>c|
d/c/B/A/ Gc/B/ A<F~F||
c|f/e/d/c/ ~fcdc f2|~f>c d<c f<a ~ge|f/e/d/c/ f>c d<BA<f|
c>B A<G F2 F>c|f/e/d/c/ f>c d<c ~f2|f>c d<c f<a ~g>e|
f/g/a/g/ f>c d>fB>d|c>A c/B/A/G/ F2 ~F||

